X: 214
T: Bill Cooper's Polka
B: australian dance tunes
M:2/4
L:1/16
R: Polka
Q: 1/4=100
K:D
V:1 
D2FA d2cd|c2E2 E4|E2GA c2Bc|B2A2 A4|D2FA d2cd|c2E2 E4|c4 B3A|F2D2 D4:|!
a3f g2e2|f2d2 d3f|e2c2 c3e|f2d2 d3f|a3f g2e2|f2d2 d3f|e2c2 c3e|d4 d4:|
% abcbook-tune_id 62a078502e6fa864d61c4fd5


% abcbook-boost 0
% abcbook-tablature 
% abcbook-transpose 
% abcbook-lastupdated 1654683750359
% abcbook-soundfonts 
% abcbook-repeats 1


